icons/rounded/twotone/image-flip-horizontal.svg

<svg xmlns="http://www.w3.org/2000/svg" width="24" height="24" viewBox="0 0 24 24" fill="none">
    <path opacity="0.4" d="M5.40692 10.5448L3.33293 14.4677C2.26817 16.4816 1.73579 17.4886 2.12971 18.2453C2.52362 19.002 3.58019 19.002 5.69334 19.002H7.76734C9.05553 19.002 9.69962 19.002 10.0998 18.5604C10.5 18.1189 10.5 17.4082 10.5 15.9869V12.064C10.5 7.57709 10.5 5.33363 9.49025 5.03243C8.48051 4.73124 7.45598 6.66909 5.40692 10.5448Z" stroke="currentColor" stroke-width="2" stroke-linejoin="round" />
    <path d="M18.5931 10.5448L20.6671 14.4677C21.7318 16.4816 22.2642 17.4886 21.8703 18.2453C21.4764 19.002 20.4198 19.002 18.3067 19.002L16.2327 19.002C14.9445 19.002 14.3004 19.002 13.9002 18.5604C13.5 18.1189 13.5 17.4082 13.5 15.9869L13.5 12.064C13.5 7.57709 13.5 5.33363 14.5097 5.03243C15.5195 4.73124 16.544 6.66909 18.5931 10.5448Z" stroke="currentColor" stroke-width="2" stroke-linejoin="round" />
</svg>

<svg xmlns="http://www.w3.org/2000/svg" width="24" height="24" viewBox="0 0 24 24" fill="none">
    <path opacity="0.4" d="M5.4 10.5l-2.1 3.9c-1.1 2-1.6 3-1.2 3.8.4.8 1.5.8 3.6.8h2.1c1.3 0 1.9 0 2.3-.4.4-.4.4-1.2.4-2.6v-3.9c0-4.5 0-6.7-1-7-1-.3-2 1.6-4.1 5.5Z" stroke="currentColor" stroke-width="2" stroke-linejoin="round" />
    <path d="M18.6 10.5l2.1 3.9c1.1 2 1.6 3 1.2 3.8-.4.8-1.5.8-3.6.8h-2.1c-1.3 0-1.9 0-2.3-.4-.4-.4-.4-1.2-.4-2.6v-3.9c0-4.5 0-6.7 1-7 1-.3 2 1.6 4.1 5.5Z" stroke="currentColor" stroke-width="2" stroke-linejoin="round" />
</svg>
